static/img/ct-gjb-icon.1dbb499b.svg

<?xml version="1.0" encoding="UTF-8"?>
<svg width="78px" height="78px" viewBox="0 0 78 78" version="1.1" xmlns="http://www.w3.org/2000/svg" xmlns:xlink="http://www.w3.org/1999/xlink">
    <!-- Generator: Sketch 52.1 (67048) - http://www.bohemiancoding.com/sketch -->
    <title>icon_西域马_产品明细_高级版</title>
    <desc>Created with Sketch.</desc>
    <defs>
        <linearGradient x1="19.00249%" y1="88.4721066%" x2="88.9879918%" y2="37.5419842%" id="linearGradient-1">
            <stop stop-color="#4C74FF" offset="0%"></stop>
            <stop stop-color="#0085FF" offset="100%"></stop>
        </linearGradient>
        <filter x="-24.4%" y="-34.2%" width="148.8%" height="168.4%" filterUnits="objectBoundingBox" id="filter-2">
            <feGaussianBlur stdDeviation="4" in="SourceGraphic"></feGaussianBlur>
        </filter>
        <linearGradient x1="6.83849904%" y1="18.5571811%" x2="77.5556913%" y2="100%" id="linearGradient-3">
            <stop stop-color="#CEEAFE" offset="0%"></stop>
            <stop stop-color="#A0D0FC" offset="100%"></stop>
        </linearGradient>
        <linearGradient x1="13.567772%" y1="0%" x2="100%" y2="100%" id="linearGradient-4">
            <stop stop-color="#0063DF" offset="0%"></stop>
            <stop stop-color="#0033BB" offset="100%"></stop>
        </linearGradient>
        <linearGradient x1="100%" y1="50%" x2="0%" y2="82.8866211%" id="linearGradient-5">
            <stop stop-color="#00E3AE" offset="0%"></stop>
            <stop stop-color="#9BE15D" offset="100%"></stop>
        </linearGradient>
    </defs>
    <g id="icon_西域马_产品明细_高级版" stroke="none" stroke-width="1" fill="none" fill-rule="evenodd">
        <g transform="translate(7.000000, 7.000000)">
            <rect id="矩形" fill="#000000" opacity="0" x="0" y="0" width="64" height="64"></rect>
            <path d="M8.425,36.0875 C8.425,28.66875 14.44375,22.65 21.8625,22.65 C22.6,22.65 23.325,22.7125 24.0375,22.825 C25.6,17.96875 30.15,14.45 35.53125,14.45 C42.2,14.45 47.6,19.85625 47.6,26.51875 C47.6,27.0625 47.5625,27.6 47.4875,28.13125 C53.13125,28.43125 57.61875,33.1 57.61875,38.81875 C57.61875,44.65625 52.95,49.39375 47.14375,49.51875 L47.14375,49.525 L21.18125,49.525 L21.18125,49.50625 C14.075,49.15 8.425,43.28125 8.425,36.0875 Z" id="路径" fill="url(#linearGradient-1)"></path>
            <path d="M8.425,44.0875 C8.425,36.66875 14.44375,30.65 21.8625,30.65 C22.6,30.65 23.325,30.7125 24.0375,30.825 C25.6,25.96875 30.15,22.45 35.53125,22.45 C42.2,22.45 47.6,27.85625 47.6,34.51875 C47.6,35.0625 47.5625,35.6 47.4875,36.13125 C53.13125,36.43125 57.61875,41.1 57.61875,46.81875 C57.61875,52.65625 52.95,57.39375 47.14375,57.51875 L47.14375,57.525 L21.18125,57.525 L21.18125,57.50625 C14.075,57.15 8.425,51.28125 8.425,44.0875 Z" id="路径" fill="url(#linearGradient-1)" opacity="0.5" filter="url(#filter-2)"></path>
            <path d="M51.5,41.50625 C51.5,41.50625 45.76875,44.01875 38.9375,43.08125 C38.9375,43.08125 37.9375,43.28125 33.10625,41.94375 C28.275,40.6125 14.54375,37.3 14.54375,37.3 C14.54375,37.3 4.5625,34.08125 4.3375,29.7625 L51.5,41.50625 Z" id="路径" fill="url(#linearGradient-3)"></path>
            <path d="M24.5875,28.29375 L24.59375,28.2625 L32.54375,30.45625 C37.025,24.4625 45.0125,21.99375 48.65625,21.66875 C52.53125,21.31875 50.80625,24.15 50.80625,24.15 L44.3875,33.71875 L49.48125,35.125 L52.94375,31.825 C52.94375,31.825 55.425,29.675 59.5,30.325 C59.5,30.325 61.69375,30.93125 57.925,36.03125 C57.925,36.03125 51.79375,42.84375 48.71875,42 L4.36875,29.775 C5.31875,26.3375 14.18125,25.75 24.5875,28.29375 Z" id="路径" fill="#E1E9FF"></path>
            <path d="M27.30625,33.5125 L28.89375,33.88125 C28.94375,33.89375 28.9875,33.8625 29,33.8125 L29.475,31.76875 C29.4875,31.71875 29.45625,31.675 29.40625,31.6625 L27.81875,31.29375 C27.76875,31.28125 27.725,31.3125 27.7125,31.3625 L27.2375,33.40625 C27.23125,33.45625 27.25625,33.50625 27.30625,33.5125 Z M24.3125,32.8125 L25.9,33.18125 C25.95,33.19375 25.99375,33.1625 26.00625,33.1125 L26.48125,31.06875 C26.49375,31.01875 26.4625,30.975 26.4125,30.9625 L24.825,30.59375 C24.775,30.58125 24.73125,30.6125 24.71875,30.6625 L24.24375,32.70625 C24.2375,32.75625 24.2625,32.80625 24.3125,32.8125 Z M21.31875,32.1125 L22.90625,32.48125 C22.95625,32.49375 23,32.4625 23.0125,32.4125 L23.4875,30.36875 C23.5,30.31875 23.46875,30.275 23.41875,30.2625 L21.83125,29.89375 C21.78125,29.88125 21.7375,29.9125 21.725,29.9625 L21.25,32.00625 C21.2375,32.05625 21.26875,32.10625 21.31875,32.1125 Z M18.325,31.41875 L19.9125,31.7875 C19.9625,31.8 20.00625,31.76875 20.01875,31.71875 L20.49375,29.675 C20.50625,29.625 20.475,29.58125 20.425,29.56875 L18.8375,29.2 C18.7875,29.1875 18.74375,29.21875 18.73125,29.26875 L18.25625,31.3125 C18.24375,31.35625 18.275,31.40625 18.325,31.41875 Z M15.33125,30.71875 L16.91875,31.0875 C16.96875,31.1 17.0125,31.06875 17.025,31.01875 L17.5,28.975 C17.5125,28.925 17.48125,28.88125 17.43125,28.86875 L15.84375,28.5 C15.79375,28.4875 15.75,28.51875 15.7375,28.56875 L15.2625,30.6125 C15.25,30.65625 15.28125,30.70625 15.33125,30.71875 Z" id="形状" fill="url(#linearGradient-4)"></path>
            <path d="M12.28125,28.36875 L12.01875,29.31875 C11.925,29.6625 11.56875,29.8625 11.225,29.76875 L5.5875,28.2125 C6.49375,27.6 7.8375,27.16875 9.51875,26.9375 L11.825,27.575 C12.175,27.66875 12.375,28.03125 12.28125,28.36875 Z" id="路径" fill="url(#linearGradient-5)"></path>
        </g>
    </g>
</svg>

<svg width="78" height="78" xmlns="http://www.w3.org/2000/svg"><defs><linearGradient x1="19.002%" y1="88.472%" x2="88.988%" y2="37.542%" id="a"><stop stop-color="#4C74FF" offset="0%"/><stop stop-color="#0085FF" offset="100%"/></linearGradient><linearGradient x1="6.838%" y1="18.557%" x2="77.556%" y2="100%" id="c"><stop stop-color="#CEEAFE" offset="0%"/><stop stop-color="#A0D0FC" offset="100%"/></linearGradient><linearGradient x1="13.568%" y1="0%" x2="100%" y2="100%" id="d"><stop stop-color="#0063DF" offset="0%"/><stop stop-color="#03B" offset="100%"/></linearGradient><linearGradient x1="100%" y1="50%" x2="0%" y2="82.887%" id="e"><stop stop-color="#00E3AE" offset="0%"/><stop stop-color="#9BE15D" offset="100%"/></linearGradient><filter x="-24.4%" y="-34.2%" width="148.8%" height="168.4%" filterUnits="objectBoundingBox" id="b"><feGaussianBlur stdDeviation="4" in="SourceGraphic"/></filter></defs><g fill="none" fill-rule="evenodd"><path d="M8.425 36.087c0-7.418 6.019-13.437 13.438-13.437.737 0 1.462.063 2.175.175C25.6 17.969 30.15 14.45 35.53 14.45c6.669 0 12.069 5.406 12.069 12.069 0 .544-.038 1.081-.113 1.612 5.644.3 10.132 4.969 10.132 10.688 0 5.837-4.669 10.575-10.475 10.7v.006H21.18v-.019c-7.106-.356-12.756-6.225-12.756-13.419z" fill="url(#a)" transform="translate(7 7)"/><path d="M8.425 44.087c0-7.418 6.019-13.437 13.438-13.437.737 0 1.462.063 2.175.175C25.6 25.969 30.15 22.45 35.53 22.45c6.669 0 12.069 5.406 12.069 12.069 0 .544-.038 1.081-.113 1.612 5.644.3 10.132 4.969 10.132 10.688 0 5.837-4.669 10.575-10.475 10.7v.006H21.18v-.019c-7.106-.356-12.756-6.225-12.756-13.419z" fill="url(#a)" opacity=".5" filter="url(#b)" transform="translate(7 7)"/><path d="M51.5 41.506s-5.731 2.513-12.563 1.575c0 0-1 .2-5.83-1.137-4.832-1.332-18.563-4.644-18.563-4.644s-9.982-3.219-10.207-7.537L51.5 41.505z" fill="url(#c)" transform="translate(7 7)"/><path d="M31.587 35.294l.007-.031 7.95 2.193c4.481-5.994 12.469-8.462 16.112-8.787 3.875-.35 2.15 2.481 2.15 2.481l-6.418 9.569 5.093 1.406 3.463-3.3s2.481-2.15 6.556-1.5c0 0 2.194.606-1.575 5.706 0 0-6.131 6.813-9.206 5.969l-44.35-12.225c.95-3.438 9.812-4.025 20.218-1.481z" fill="#E1E9FF"/><path d="M27.306 33.513l1.588.368c.05.013.094-.019.106-.069l.475-2.043c.012-.05-.019-.094-.069-.106l-1.587-.37c-.05-.012-.094.02-.107.07l-.474 2.043c-.007.05.018.1.068.107zm-2.994-.7l1.588.368c.05.013.094-.018.106-.069l.475-2.043c.013-.05-.019-.094-.069-.107l-1.587-.368c-.05-.013-.094.018-.106.069l-.475 2.043c-.006.05.018.1.069.106zm-2.993-.7l1.587.368c.05.013.094-.019.107-.069l.474-2.043c.013-.05-.018-.094-.068-.107l-1.588-.368c-.05-.013-.093.019-.106.069l-.475 2.043c-.012.05.019.1.069.106zm-2.994-.694l1.588.369c.05.012.093-.02.106-.07l.475-2.043c.012-.05-.019-.094-.069-.106l-1.588-.369c-.05-.012-.093.019-.106.069l-.475 2.044c-.012.043.019.093.069.106zm-2.994-.7l1.588.368c.05.013.093-.018.106-.068l.475-2.044c.012-.05-.019-.094-.069-.106l-1.587-.369c-.05-.012-.094.019-.106.069l-.476 2.044c-.012.043.02.093.07.106z" fill="url(#d)" transform="translate(7 7)"/><path d="M12.281 28.369l-.262.95a.645.645 0 01-.794.45l-5.637-1.556c.906-.613 2.25-1.044 3.93-1.276l2.307.638c.35.094.55.456.456.794z" fill="url(#e)" transform="translate(7 7)"/></g></svg>
